X:623
T:Richmond Cotillion
H:For the dance "Going at Sixty" by Colin Hume
%%titlefont Times-Roman 24
%%partsfont Times-Roman 20 box
%%staffsep 20pt
M:4/4
S:Colin Hume's website,  colinhume.com  - chords can also be printed below the stave.
Q:1/2=115
%%MIDI program 41
K:D
P:A
|: "D"[DA]2 f2 fgfe | d2F2A3d | "A"c2B2A2B2 | "D"ABAG "A"FGFE |\
"D"[DA]2 f2 fgfe | d2F2A3d | "A"c2A2BAcA | "D"d8 :|
K:A
P:B
|: "A"efed cdef | a2c2e4 | "E"B2c2d2B2 | "A"cdcB ABcd |\
"A"efed cdef | a2c2e3a | "E"g2e2fege | "A"a8 :|

